svg/editor/ZA_sort_ascending_letters_fill.svg

<?xml version="1.0" encoding="UTF-8"?>
<svg width="24px" height="24px" viewBox="0 0 24 24" version="1.1" xmlns="http://www.w3.org/2000/svg" xmlns:xlink="http://www.w3.org/1999/xlink">
    <title>ZA_sort_ascending_letters_fill</title>
    <g id="Icon" stroke="none" stroke-width="1" fill="none" fill-rule="evenodd">
        <g id="Editor" transform="translate(-384.000000, -336.000000)" fill-rule="nonzero">
            <g id="ZA_sort_ascending_letters_fill" transform="translate(384.000000, 336.000000)">
                <path d="M24,0 L24,24 L0,24 L0,0 L24,0 Z M12.5935,23.2578 L12.5819,23.2595 L12.5109,23.295 L12.4919,23.2987 L12.4767,23.295 L12.4057,23.2595 C12.3958,23.2564 12.387,23.259 12.3821,23.2649 L12.378,23.2758 L12.3609,23.7031 L12.3659,23.7235 L12.3769,23.7357 L12.4805,23.8097 L12.4953,23.8136 L12.5071,23.8097 L12.6107,23.7357 L12.6233,23.7197 L12.6267,23.7031 L12.6096,23.2758 C12.6076,23.2657 12.601,23.2593 12.5935,23.2578 Z M12.8584,23.1453 L12.8445,23.1473 L12.6598,23.2397 L12.6499,23.2499 L12.6472,23.2611 L12.6651,23.6906 L12.6699,23.7034 L12.6784,23.7105 L12.8793,23.8032 C12.8914,23.8069 12.9022,23.803 12.9078,23.7952 L12.9118,23.7812 L12.8777,23.1665 C12.8753,23.1546 12.8674,23.147 12.8584,23.1453 Z M12.143,23.1473 C12.1332,23.1424 12.1222,23.1453 12.1156,23.1526 L12.1099,23.1665 L12.0758,23.7812 C12.0751,23.7927 12.0828,23.8019 12.0926,23.8046 L12.1083,23.8032 L12.3092,23.7105 L12.3186,23.7024 L12.3225,23.6906 L12.3404,23.2611 L12.3372,23.2485 L12.3278,23.2397 L12.143,23.1473 Z" id="MingCute"></path>
                <path d="M7.99992,12 C8.87532938,12 9.66212742,12.515918 10.0158351,13.305011 L10.0807,13.4664 L12.4125,19.9955 C12.6912,20.7757 12.2846,21.634 11.5044,21.9126 C10.7701882,22.1748118 9.96665273,21.8301529 9.64236403,21.1382397 L9.58731,21.0045 L9.40713,20.5 L6.59271,20.5 L6.41253,21.0045 C6.1339,21.7847 5.27558,22.1912 4.49542,21.9126 C3.76114235,21.6503882 3.3578045,20.8746706 3.54518938,20.1338592 L3.58731,19.9955 L5.91914,13.4664 C6.2332,12.587 7.06615,12 7.99992,12 Z M18.0607,3.93934 L20.8891,6.76777 C21.4749,7.35355 21.4749,8.3033 20.8891,8.88909 C20.3033,9.47487 19.3536,9.47487 18.7678,8.88909 L18.5,8.62132 L18.5,19.9999975 C18.5,20.8284 17.8284,21.4999975 17,21.4999975 C16.1716,21.4999975 15.5,20.8284 15.5,19.9999975 L15.5,8.62132 L15.2322,8.88909 C14.6465,9.47487 13.6967,9.47487 13.1109,8.88909 C12.5251,8.3033 12.5251,7.35355 13.1109,6.76777 L15.9393,3.93934 C16.5251,3.35355 17.4749,3.35355 18.0607,3.93934 Z M7.99992,16.5598 L7.66414,17.5 L8.3357,17.5 L7.99992,16.5598 Z M10.7584,2 C12.1363833,2 12.849416,3.61044959 11.9848978,4.62828136 L11.8898,4.73137 L8.62118,8 L10.9999,8 C11.8283,8 12.4999,8.67157 12.4999,9.5 C12.4999,10.2796706 11.9049879,10.9204457 11.1443558,10.9931332 L10.9999,11 L5.24128,11 C3.863345,11 3.15035132,9.38955041 4.01481792,8.37171864 L4.10991,8.26863 L7.37854,5 L4.99986,5 C4.17143,5 3.49986,4.32843 3.49986,3.5 C3.49986,2.72030118 4.09474554,2.079551 4.85539954,2.00686655 L4.99986,2 L10.7584,2 Z" id="形状" fill="#09244B"></path>
            </g>
        </g>
    </g>
</svg>

<svg xmlns="http://www.w3.org/2000/svg" width="24" height="24"><g fill="none" fill-rule="nonzero"><path d="M24 0v24H0V0h24ZM12.594 23.258l-.012.002-.071.035-.02.004-.014-.004-.071-.036c-.01-.003-.019 0-.024.006l-.004.01-.017.428.005.02.01.013.104.074.015.004.012-.004.104-.074.012-.016.004-.017-.017-.427c-.002-.01-.009-.017-.016-.018Zm.264-.113-.014.002-.184.093-.01.01-.003.011.018.43.005.012.008.008.201.092c.012.004.023 0 .029-.008l.004-.014-.034-.614c-.003-.012-.01-.02-.02-.022Zm-.715.002a.023.023 0 0 0-.027.006l-.006.014-.034.614c0 .012.007.02.017.024l.015-.002.201-.093.01-.008.003-.011.018-.43-.003-.012-.01-.01-.184-.092Z"/><path fill="#09244B" d="M8 12a2.21 2.21 0 0 1 2.016 1.305l.065.161 2.332 6.53a1.5 1.5 0 0 1-2.77 1.142l-.056-.134-.18-.504H6.593l-.18.505a1.5 1.5 0 0 1-2.868-.871l.042-.139 2.332-6.529A2.21 2.21 0 0 1 8 12Zm10.06-8.06 2.83 2.828a1.5 1.5 0 1 1-2.122 2.121l-.268-.268V20a1.5 1.5 0 0 1-3 0V8.621l-.268.268a1.5 1.5 0 1 1-2.121-2.121l2.828-2.829a1.5 1.5 0 0 1 2.122 0ZM8 16.56l-.336.94h.672L8 16.56ZM10.758 2c1.378 0 2.091 1.61 1.227 2.628l-.095.103L8.62 8H11a1.5 1.5 0 0 1 .144 2.993L11 11H5.24c-1.378 0-2.09-1.61-1.226-2.628l.095-.103L7.379 5h-2.38a1.5 1.5 0 0 1-.144-2.993L5 2h5.758Z"/></g></svg>
